X:1
T:[ID 1-85a]
T:[ID 1-85a]
T:Bezeichnung standardisiert: Contratanz Conter Dantz
T:Urheber unbekannt Datum in der hier transkribierten schriftlichen Quelle: vermutlich vor 1767
C:Urheber unbekannt
C:Datum in der hier transkribierten schriftlichen Quelle: vermutlich vor 1767
L:1/8
M:2/4
K:D
V:1 treble 
V:1
 d2 a2 | fe/f/ da | fd g/f/e/d/ | e2 A2 | d2 a2 | fe/f/ da | fd g/f/e/d/ |"^[sic]" e6 :: %8
"^1)" !fermata!df gf/e/ | eg af/e/ | fa ag/f/ | e/d/c/B/ A2 | eg fe/d/ | eg gf/e/ | f2 ec | %15
"^[sic]" d6 :| !fermata!df fe/d/ | eg gf/e/ | fa ag/f/ | e/d/c/B/ A2 | df fe/d/ | eg gf/e/ | %22
 f2 ec | d3 x :| %24

